X:1
T:Donald MacLennan's Exercise  "CYMRU"
M:9/8
L:1/8
Q:80
C:P/M G.S. McLennan
S:Jig
K:HP
|: | {g}df{e}f{g}fe{A}e{g}fB{G}B | \
{g}df{e}f{g}ce{A}e{gef}ec{G}A | \
{g}df{e}f{g}fe{A}e{g}fB{G}B |
{a}ge{A}e{g}fd{G}d{gef}ec{G}A :: \
| {g}df{e}faf{e}faf{e}f | \
{g}df{e}fad{G}d{g}ce{A}e |
{g}df{e}faf{e}faf{e}f | \
{a}ge{A}e{g}fd{G}d{g}ce{A}e :: \
| {g}dag{a}fag{a}fB{d}c |
{g}dag{afg}fdf{gef}eA{d}c | \
{g}dag{a}fag{a}fB{d}c | \
{g}dad{g}caf{gef}eA{d}c ::
| {g}dfe{g}efefB{d}c | \
{g}dfd{g}caf{gef}eA{d}c | \
{g}dfe{g}efe{g}fB{d}c |
{g}dad{g}caf{gef}eA{d}c :: \
| {g}dfaf{g}da{gefe}f3 | \
{g}dfaf{g}df{g}{eAfA}e3 |
{g}dfaf{g}da{gefe}f3 | \
g{a}eg{a}fdf{g}{eAfA}e3 :: \
| {g}dfd{g}ede{g}{gefe}f3 |
{g}dfd{g}edf{g}{eAfA}e3 | \
{g}dfd{g}ede{g}{gefe}f3 | \
g{a}eg{a}fdf{g}{eAfA}e3 :|
